packages/icons/src/components/Logo/assets/light/python.svg

<svg width="20" height="20" viewBox="0 0 20 20" fill="none" xmlns="http://www.w3.org/2000/svg">
<g>
<path d="M9.65617 0.000136524C8.97544 0.00329956 8.32535 0.0613563 7.75334 0.162573C6.06828 0.460268 5.76234 1.08337 5.76234 2.23248V3.7501H9.74435V4.25597H5.76234H4.26792C3.11064 4.25597 2.09729 4.95156 1.78032 6.27482C1.41471 7.79158 1.39849 8.73807 1.78032 10.3218C2.06338 11.5007 2.73935 12.3407 3.89664 12.3407H5.26574V10.5214C5.26574 9.20705 6.40293 8.0477 7.75334 8.0477H11.7307C12.8379 8.0477 13.7217 7.1361 13.7217 6.02421V2.23248C13.7217 1.15333 12.8113 0.342678 11.7307 0.162573C11.0467 0.048704 10.3369 -0.00302656 9.65617 0.000136524ZM7.50273 1.22073C7.91404 1.22073 8.24993 1.56211 8.24993 1.98186C8.24993 2.40012 7.91404 2.73835 7.50273 2.73835C7.08994 2.73835 6.75552 2.40012 6.75552 1.98186C6.75552 1.56211 7.08994 1.22073 7.50273 1.22073Z" fill="url(#paint0_linear_341_673)"/>
<path d="M14.2183 4.25586V6.0241C14.2183 7.39499 13.0561 8.54882 11.7307 8.54882H7.75334C6.66387 8.54882 5.76233 9.48126 5.76233 10.5723V14.364C5.76233 15.4432 6.70072 16.0779 7.75334 16.3875C9.01382 16.7582 10.2226 16.8252 11.7307 16.3875C12.7332 16.0973 13.7217 15.5131 13.7217 14.364V12.8464H9.74434V12.3406H13.7217H15.7127C16.87 12.3406 17.3013 11.5333 17.7037 10.3217C18.1195 9.07435 18.1018 7.87483 17.7037 6.27471C17.4177 5.12263 16.8715 4.25586 15.7127 4.25586H14.2183ZM11.9813 13.8582C12.3941 13.8582 12.7285 14.1964 12.7285 14.6147C12.7285 15.0344 12.3941 15.3758 11.9813 15.3758C11.57 15.3758 11.2341 15.0344 11.2341 14.6147C11.2341 14.1964 11.57 13.8582 11.9813 13.8582Z" fill="url(#paint1_linear_341_673)"/>
<path opacity="0.44382" d="M9.78954 20.0001C12.7367 20.0001 15.1258 19.5369 15.1258 18.9654C15.1258 18.3939 12.7367 17.9307 9.78954 17.9307C6.84242 17.9307 4.45331 18.3939 4.45331 18.9654C4.45331 19.5369 6.84242 20.0001 9.78954 20.0001Z" fill="url(#paint2_radial_341_673)"/>
</g>
<defs>
<linearGradient id="paint0_linear_341_673" x1="1.5" y1="-4.30928e-08" x2="10.6821" y2="7.82441" gradientUnits="userSpaceOnUse">
<stop stop-color="#5A9FD4"/>
<stop offset="1" stop-color="#306998"/>
</linearGradient>
<linearGradient id="paint1_linear_341_673" x1="11.8856" y1="14.4871" x2="8.59145" y2="9.87094" gradientUnits="userSpaceOnUse">
<stop stop-color="#FFD43B"/>
<stop offset="1" stop-color="#FFE873"/>
</linearGradient>
<radialGradient id="paint2_radial_341_673" cx="0" cy="0" r="1" gradientUnits="userSpaceOnUse" gradientTransform="translate(9.78953 18.9654) rotate(-90) scale(1.03474 4.54812)">
<stop stop-color="#B8B8B8" stop-opacity="0.498039"/>
<stop offset="1" stop-color="#7F7F7F" stop-opacity="0"/>
</radialGradient>
<clipPath id="clip0_341_673">
<rect width="16.5089" height="20" fill="white" transform="translate(1.5)"/>
</clipPath>
</defs>
</svg>

<svg xmlns="http://www.w3.org/2000/svg" width="20" height="20" fill="none" viewBox="0 0 20 20">
    <path fill="url(#a)" d="M9.656 0c-.68.003-1.33.061-1.903.163-1.685.297-1.99.92-1.99 2.07V3.75h3.981v.506H4.268c-1.157 0-2.17.696-2.488 2.019-.365 1.517-.382 2.463 0 4.047.283 1.179.96 2.019 2.117 2.019h1.369v-1.82c0-1.314 1.137-2.473 2.487-2.473h3.978c1.107 0 1.99-.912 1.99-2.024V2.232c0-1.079-.91-1.89-1.99-2.07A12.4 12.4 0 0 0 9.656 0M7.503 1.22c.411 0 .747.342.747.762a.75.75 0 0 1-.747.756.75.75 0 0 1-.747-.756c0-.42.334-.761.747-.761"/>
    <path fill="url(#b)" d="M14.218 4.256v1.768c0 1.371-1.162 2.525-2.487 2.525H7.753c-1.09 0-1.99.932-1.99 2.023v3.792c0 1.08.938 1.714 1.99 2.023 1.26.371 2.47.438 3.978 0 1.002-.29 1.99-.874 1.99-2.023v-1.518H9.745v-.505h5.968c1.158 0 1.59-.808 1.992-2.02.415-1.247.398-2.446 0-4.046-.286-1.152-.832-2.02-1.991-2.02zm-2.237 9.602c.413 0 .748.338.748.757 0 .42-.335.76-.748.76a.756.756 0 0 1-.747-.76c0-.419.336-.757.747-.757"/>
    <path fill="url(#c)" d="M9.79 20c2.947 0 5.336-.463 5.336-1.035s-2.39-1.034-5.336-1.034c-2.948 0-5.337.463-5.337 1.034 0 .572 2.39 1.035 5.337 1.035" opacity=".444"/>
    <defs>
        <linearGradient id="a" x1="1.5" x2="10.682" y1="0" y2="7.824" gradientUnits="userSpaceOnUse">
            <stop stop-color="#5a9fd4"/>
            <stop offset="1" stop-color="#306998"/>
        </linearGradient>
        <linearGradient id="b" x1="11.886" x2="8.591" y1="14.487" y2="9.871" gradientUnits="userSpaceOnUse">
            <stop stop-color="#ffd43b"/>
            <stop offset="1" stop-color="#ffe873"/>
        </linearGradient>
        <radialGradient id="c" cx="0" cy="0" r="1" gradientTransform="matrix(0 -1.03474 4.54812 0 9.79 18.965)" gradientUnits="userSpaceOnUse">
            <stop stop-color="#b8b8b8" stop-opacity=".498"/>
            <stop offset="1" stop-color="#7f7f7f" stop-opacity="0"/>
        </radialGradient>
    </defs>
</svg>
